X:1
T: Methven Castle
C:Alexander Walker
R:Strathspey
Q: 128
K:A
M:4/4
L:1/16
|:A2|A,A,A,2 E2C2 E2A,2 A,2C2|B,2C2 D2E2 F4 F2A2|A,A,A,2 E2C2 E2F2 A2d2|c2e2 B2e2 c2A2 A2A2|
A,A,A,2 E2C2 E2A,2 A,2C2|B,2C2 D2E2 F4 F2A2|A,A,A,2 E2C2 E2F2 A2d2|c2e2 B2e2 c2A2 A2e2|
c2A2 e2A2 d2B2 b2c2|d2B2 c2A2 B2B,2 B,2D2|C2A,2 D2C2 D2B,2 B2A2|G2B2 E2G2 A2A,2 A,2e2|
c2A2 e2c2 d2B2 b2c2|d2f2 e2c2 d2B2 B2d2|c2e2 d2f2 e2a2 f2d2|c2A2 A2G2 A2A,2 A,2:|
